X:1
T:Croatia, LM
T:Croatia, LM
T:Edna Randolph Worrell, 1906
T:Public Domain Courtesy of the Cyber Hymnal™
C:Edna Randolph Worrell, 1906
Z:Public Domain
Z:Courtesy of the Cyber Hymnal™
%%score ( 1 2 ) ( 3 4 )
L:1/8
Q:1/4=105
M:2/4
K:F
V:1 treble 
V:2 treble 
V:3 bass 
V:4 bass 
V:1
 [CF]2 [CF]2 | D C2 D | [DF]2 [FA]2 | [Fc]4 | [Fd]2 [Ff]2 | [Fc] [FA]2 F | [FA]2 [FG]2 | [EG]4 | %8
 [CF]2 [CF]2 | D C2 D | [CF]2 [FA]2 | [Fc]4 | [Fd]2 [Ff]2 | [Fc] [FA]2 F | [FA]2 [CG]2 | %15
 [CF]2 z2 |] %16
V:2
 x4 | D C2 D | x4 | x4 | x4 | x3 F | x4 | x4 | x4 | D C2 D | x4 | x4 | x4 | x3 F | x4 | x4 |] %16
V:3
 [F,A,]2 [F,A,]2 | [F,B,] [F,A,]2 [F,B,] | [F,A,]2 [F,C]2 | [F,A,]4 | B,2 [B,D]2 | %5
 [A,C] [A,C]2 [A,C] | [G,=B,]2 [G,B,]2 | [C,C]4 | [F,A,]2 [F,A,]2 | [F,B,] [F,A,]2 [F,B,] | %10
 [F,A,]2 [F,C]2 | [F,A,]4 | [B,,B,]2 [=B,,_A,]2 | [C,A,] [C,C]2 [D,=B,] | [C,C]2 [C,B,]2 | %15
 [F,A,]2 z2 |] %16
V:4
 x4 | x4 | x4 | x4 | B,2 x2 | x4 | x4 | x4 | x4 | x4 | x4 | x4 | x4 | x4 | x4 | x4 |] %16

